X:1
T:G minor Scottish Psalter, 1615 Harmonized by Thomas Ravenscroft, 1621
T:John Hopkins, 1549 86. 86. (C. M.)
T:Psalm 33 (Dukes) No copyright. Transcribed from Ravenscroft, The Whole Booke of Psalmes, 1621.
%%score ( 1 2 ) ( 3 4 )
L:1/8
M:2/4
K:F
V:1 treble nm="Soprano\nAlto" snm="S.\nA."
V:2 treble 
V:3 bass nm="Tenor\nBass" snm="T.\nB."
V:4 bass 
V:1
 F4 A2 B2 c2 c2 B2 B2 A4 | A4 G2 c2 c2 =B2 c4 | c4 d2 c2 B2 A2 G2 F2 E4 | F4 G2 A2 B2 G2 F16 |] %4
V:2
 C4 C2 F2 E2 C2 D2 D2 C4 | z2 C2 C2 E2 D3 D E4 | z2 F2 F2 E2 D2 C2 C2 B,A, C4 | %3
 C4 C2 C2 D2 CB, A,16 |] %4
V:3
"^1. Ye righteous in the Lord, rejoice:  It is a seemly sight,  That upright men with thankful voice  Should praise the God of might.\n2. Praise ye the Lord with harp and song, in psalms and pleasant things: With lute and instruments among \n                                                                                                                                                                     That soundeth with ten strings." A,4 C2 D2 G,2 A,2 F,2 F,2 F,4 | %1
 z2 F,2 G,2 G,2 G,3 G, G,4 | A,4 B,2 A,2 F,3 F, E,2 F,2 G,4 | A,4 G,F, F,4 E,2 F,16 |] %4
V:4
 F,4 F,2 D,2 E,2 F,2 D,2 B,,2 F,4 | F,4 E,2 C,2 G,,2 G,,2 C,4 | F,4 B,,2 C,2 D,2 F,2 C,2 D,2 C,4 | %3
 z2 F,2 E,2 F,2 B,,2 C,2 F,,16 |] %4

